packages/components/src/components/icon/stock/ic-stock-master-card-dark.svg

<svg width="40" height="25" viewBox="0 0 40 25" fill="none" xmlns="http://www.w3.org/2000/svg">
<path d="M11.9957 22.1292V20.803C11.9957 20.3051 11.7055 19.9746 11.2097 19.9703C10.9185 19.9515 10.641 20.096 10.4894 20.3453C10.3518 20.1039 10.0912 19.9592 9.81351 19.9703C9.56809 19.956 9.33374 20.074 9.1991 20.2797V20.0233H8.78809V22.1292H9.21181V20.9322C9.19354 20.7865 9.24052 20.6401 9.34019 20.5323C9.43987 20.4244 9.58207 20.3661 9.72876 20.3729C10.0233 20.3729 10.1906 20.572 10.1906 20.928V22.1398H10.6144V20.9322C10.5976 20.7868 10.6451 20.6413 10.7444 20.5339C10.8438 20.4264 10.985 20.3676 11.1313 20.3729C11.4364 20.3729 11.5974 20.572 11.5974 20.928V22.1398L11.9957 22.1292ZM18.6588 20.0233H17.9152V19.3877H17.4915V20.0233H17.0677V20.4068H17.4915V21.4025C17.4915 21.8898 17.6588 22.1822 18.1843 22.1822C18.3818 22.1826 18.5753 22.126 18.7415 22.0191L18.6122 21.6441C18.4944 21.7176 18.3591 21.7586 18.2203 21.7627C18.0084 21.7627 17.9067 21.6229 17.9067 21.411V20.4068H18.6504L18.6588 20.0233ZM22.4533 19.9703C22.2287 19.9673 22.0198 20.0855 21.9067 20.2797V20.0233H21.483V22.1292H21.9067V20.9428C21.9067 20.5953 22.0677 20.3708 22.3601 20.3708C22.4553 20.3692 22.5498 20.3872 22.6377 20.4237L22.7754 20.0275C22.6723 19.9893 22.5632 19.97 22.4533 19.9703ZM16.7182 20.1822C16.467 20.0306 16.1765 19.9568 15.8834 19.9703C15.3665 19.9703 15.0508 20.2224 15.0508 20.6398C15.0508 20.983 15.2817 21.1907 15.7394 21.2563L15.9512 21.2881C16.197 21.322 16.3283 21.411 16.3283 21.5297C16.3283 21.6928 16.1483 21.7987 15.8453 21.7987C15.6008 21.8098 15.3602 21.7348 15.1652 21.5869L14.9533 21.9174C15.2121 22.1001 15.5222 22.1958 15.8389 22.1907C16.43 22.1907 16.7542 21.9089 16.7542 21.5063C16.7542 21.1377 16.5063 20.947 16.0572 20.8708L15.8453 20.8411C15.6525 20.8135 15.4809 20.7521 15.4809 20.6123C15.4809 20.4724 15.644 20.3517 15.8877 20.3517C16.1115 20.3562 16.3303 20.4182 16.5233 20.5318L16.7182 20.1822ZM22.9194 21.0678C22.8994 21.3612 23.005 21.6493 23.2099 21.8603C23.4148 22.0713 23.6997 22.1852 23.9936 22.1737C24.2617 22.1859 24.5245 22.0957 24.7288 21.9216L24.5169 21.5911C24.3653 21.7127 24.1773 21.7799 23.983 21.7818C23.6187 21.742 23.3427 21.4343 23.3427 21.0678C23.3427 20.7013 23.6187 20.3936 23.983 20.3538C24.1769 20.3559 24.3647 20.4222 24.5169 20.5424L24.7288 20.214C24.3993 19.9424 23.9429 19.8848 23.5563 20.0659C23.1696 20.247 22.9217 20.6345 22.9194 21.0614V21.0678ZM20.0466 19.9619C19.447 19.9619 19.036 20.4068 19.036 21.0635C19.036 21.7203 19.4597 22.1737 20.0762 22.1737C20.3862 22.1864 20.6893 22.0803 20.9237 21.8771L20.7118 21.5657C20.5437 21.7013 20.3346 21.776 20.1186 21.7775C19.7945 21.7949 19.5143 21.5539 19.483 21.2309H21.0105C21.0105 21.1737 21.0105 21.1165 21.0105 21.0551C21.0042 20.4152 20.6186 19.9703 20.0466 19.9703V19.9619ZM20.0466 20.3538C20.1894 20.3509 20.3273 20.4061 20.4287 20.5067C20.5302 20.6074 20.5864 20.7448 20.5847 20.8877H19.4724C19.4873 20.5881 19.7382 20.355 20.0381 20.3623L20.0466 20.3538ZM14.5105 21.0678V20.0085H14.0911V20.2648C13.9313 20.0668 13.6863 19.9573 13.4322 19.9703C12.8601 19.9703 12.4237 20.4322 12.4237 21.0763C12.4237 21.7203 12.8601 22.1822 13.4322 22.1822C13.6904 22.1931 13.9377 22.0777 14.0953 21.8729V22.1292H14.5063L14.5105 21.0678ZM12.8559 21.0678C12.8388 20.8873 12.8975 20.7078 13.0181 20.5723C13.1387 20.4369 13.3102 20.3577 13.4915 20.3538C13.8665 20.3538 14.1144 20.6589 14.1144 21.0678C14.1144 21.4767 13.8665 21.7818 13.4915 21.7818C13.3103 21.78 13.138 21.703 13.0159 21.5692C12.8937 21.4354 12.8327 21.2568 12.8474 21.0763L12.8559 21.0678ZM28.6377 19.9619C28.41 19.9557 28.1971 20.0743 28.0826 20.2712V20.0148H27.6758V22.1208H28.0868V20.9343C28.0868 20.5869 28.25 20.3623 28.5402 20.3623C28.6354 20.3607 28.7299 20.3787 28.8177 20.4152L28.9555 20.0191C28.8505 19.9832 28.74 19.9667 28.6292 19.9703L28.6377 19.9619ZM27.0656 21.0678V20.0085H26.6461V20.2648C26.4879 20.0609 26.241 19.9457 25.983 19.9555C25.4088 19.9555 24.9724 20.4174 24.9724 21.0614C24.9724 21.7055 25.4088 22.1674 25.983 22.1674C26.241 22.1772 26.4879 22.062 26.6461 21.858V22.1144H27.0572L27.0656 21.0678ZM25.4088 21.0678C25.3917 20.8873 25.4505 20.7078 25.5711 20.5723C25.6917 20.4369 25.8631 20.3577 26.0444 20.3538C26.4216 20.3538 26.68 20.6589 26.68 21.0678C26.68 21.4767 26.4322 21.7818 26.0444 21.7818C25.8633 21.78 25.691 21.703 25.5688 21.5692C25.4467 21.4354 25.3857 21.2568 25.4004 21.0763L25.4088 21.0678ZM31.1927 21.0678V19.161H30.7817V20.2627C30.6235 20.0587 30.3766 19.9436 30.1186 19.9534C29.5444 19.9534 29.108 20.4152 29.108 21.0593C29.108 21.7034 29.5444 22.1652 30.1186 22.1652C30.3766 22.175 30.6235 22.0599 30.7817 21.8559V22.1123H31.1927V21.0678ZM29.536 21.0678C29.5189 20.8873 29.5776 20.7078 29.6982 20.5723C29.8188 20.4369 29.9903 20.3577 30.1716 20.3538C30.5487 20.3538 30.8072 20.6589 30.8072 21.0678C30.8072 21.4767 30.5593 21.7818 30.1716 21.7818C29.9915 21.7783 29.8209 21.7005 29.7001 21.5669C29.5794 21.4333 29.5192 21.2558 29.5338 21.0763L29.536 21.0678Z" fill="white"/>
<circle cx="15.3125" cy="10.3125" r="7.8125" fill="#EB001B"/>
<circle cx="24.6875" cy="10.3125" r="7.8125" fill="#F79E1B"/>
<path fill-rule="evenodd" clip-rule="evenodd" d="M20 16.563C21.8976 15.1377 23.125 12.8684 23.125 10.3125C23.125 7.7565 21.8976 5.48721 20 4.06189C18.1024 5.48721 16.875 7.7565 16.875 10.3125C16.875 12.8684 18.1024 15.1377 20 16.563Z" fill="#FF5F00"/>
</svg>

<svg width="40" height="25" fill="none" xmlns="http://www.w3.org/2000/svg"><path d="M11.996 22.13v-1.327c0-.498-.29-.828-.786-.833a.784.784 0 00-.72.375.744.744 0 00-.676-.375.687.687 0 00-.615.31v-.257h-.41v2.106h.423v-1.197a.498.498 0 01.517-.56c.294 0 .462.2.462.556v1.212h.423v-1.208a.502.502 0 01.517-.56c.305 0 .466.2.466.556v1.212l.399-.01zm6.663-2.107h-.744v-.635h-.424v.635h-.423v.384h.423v.995c0 .488.168.78.693.78.198 0 .391-.056.557-.163l-.129-.375a.784.784 0 01-.392.119c-.212 0-.313-.14-.313-.352v-1.004h.743l.009-.384zm3.794-.053a.623.623 0 00-.546.31v-.257h-.424v2.106h.424v-1.186c0-.348.16-.572.453-.572a.693.693 0 01.278.053l.137-.396a.92.92 0 00-.322-.058zm-5.735.212a1.484 1.484 0 00-.835-.212c-.516 0-.832.252-.832.67 0 .343.23.55.688.616l.212.032c.246.034.377.123.377.242 0 .163-.18.269-.483.269a1.047 1.047 0 01-.68-.212l-.212.33c.26.183.57.279.886.274.591 0 .915-.282.915-.685 0-.368-.248-.559-.697-.635l-.212-.03c-.193-.027-.364-.089-.364-.229s.163-.26.407-.26c.223.004.442.066.635.18l.195-.35zm6.201.886a1.036 1.036 0 001.075 1.106c.268.012.53-.078.735-.252l-.212-.33a.867.867 0 01-.534.19.718.718 0 010-1.428.877.877 0 01.534.188l.212-.328a1.106 1.106 0 00-1.81.847v.007zm-2.872-1.106c-.6 0-1.011.445-1.011 1.102 0 .656.424 1.11 1.04 1.11.31.012.613-.094.848-.297l-.212-.311a.955.955 0 01-.593.212.606.606 0 01-.636-.547h1.527v-.176c-.006-.64-.391-1.085-.963-1.085v-.008zm0 .392a.527.527 0 01.538.534h-1.113a.553.553 0 01.566-.526l.009-.008zm-5.537.714v-1.06h-.419v.257a.795.795 0 00-.659-.295c-.572 0-1.008.462-1.008 1.106 0 .644.436 1.106 1.008 1.106a.794.794 0 00.663-.31v.257h.411l.005-1.061zm-1.654 0a.653.653 0 01.636-.714c.374 0 .622.305.622.714s-.248.714-.623.714a.653.653 0 01-.644-.706l.009-.008zm15.782-1.106a.622.622 0 00-.555.31v-.257h-.407v2.106h.41v-1.187c0-.347.164-.572.454-.572a.693.693 0 01.278.053l.137-.396a.916.916 0 00-.326-.049l.009-.008zm-1.572 1.106v-1.06h-.42v.257a.8.8 0 00-.663-.31c-.574 0-1.01.462-1.01 1.106 0 .645.436 1.106 1.01 1.106a.8.8 0 00.663-.309v.256h.411l.009-1.046zm-1.657 0a.653.653 0 01.635-.714c.378 0 .636.305.636.714s-.248.714-.636.714a.653.653 0 01-.644-.706l.009-.008zm5.784 0V19.16h-.411v1.102a.8.8 0 00-.663-.31c-.575 0-1.011.462-1.011 1.106 0 .644.436 1.106 1.01 1.106a.8.8 0 00.664-.31v.257h.41v-1.044zm-1.657 0a.653.653 0 01.636-.714c.377 0 .635.305.635.714s-.248.714-.635.714a.653.653 0 01-.638-.706l.002-.008z" fill="#fff"/><circle cx="15.313" cy="10.313" r="7.813" fill="#EB001B"/><circle cx="24.688" cy="10.313" r="7.813" fill="#F79E1B"/><path fill-rule="evenodd" clip-rule="evenodd" d="M20 16.563a7.8 7.8 0 003.125-6.25A7.8 7.8 0 0020 4.061a7.8 7.8 0 00-3.125 6.25A7.8 7.8 0 0020 16.564z" fill="#FF5F00"/></svg>
